SVG_Azure_All/Service Endpoint.svg

<?xml version="1.0" encoding="UTF-8" standalone="no"?>
<!-- Generated by Microsoft Visio, SVG Export Service Endpoint.svg Page-1 -->

<svg
   xmlns:dc="http://purl.org/dc/elements/1.1/"
   xmlns:cc="http://creativecommons.org/ns#"
   xmlns:rdf="http://www.w3.org/1999/02/22-rdf-syntax-ns#"
   xmlns:svg="http://www.w3.org/2000/svg"
   xmlns="http://www.w3.org/2000/svg"
   xmlns:sodipodi="http://sodipodi.sourceforge.net/DTD/sodipodi-0.dtd"
   xmlns:inkscape="http://www.inkscape.org/namespaces/inkscape"
   width="0.70857465in"
   height="0.78754884in"
   viewBox="0 0 51.017393 56.70325"
   xml:space="preserve"
   class="st7"
   version="1.1"
   id="svg92"
   sodipodi:docname="Service Endpoint.svg"
   style="font-size:12px;overflow:visible;color-interpolation-filters:sRGB;fill:none;fill-rule:evenodd;stroke-linecap:square;stroke-miterlimit:3"
   inkscape:version="0.92.5 (2060ec1f9f, 2020-04-08)"><metadata
   id="metadata96"><rdf:RDF><cc:Work
       rdf:about=""><dc:format>image/svg+xml</dc:format><dc:type
         rdf:resource="http://purl.org/dc/dcmitype/StillImage" /></cc:Work></rdf:RDF></metadata><sodipodi:namedview
   pagecolor="#ffffff"
   bordercolor="#666666"
   borderopacity="1"
   objecttolerance="10"
   gridtolerance="10"
   guidetolerance="10"
   inkscape:pageopacity="0"
   inkscape:pageshadow="2"
   inkscape:window-width="640"
   inkscape:window-height="480"
   id="namedview94"
   showgrid="false"
   inkscape:zoom="1.4820575"
   inkscape:cx="34.008847"
   inkscape:cy="34.277103"
   inkscape:window-x="0"
   inkscape:window-y="0"
   inkscape:window-maximized="0"
   inkscape:current-layer="svg92" />
	<style
   type="text/css"
   id="style2">
	<![CDATA[
		.st1 {fill:#50e6ff;stroke:none;stroke-linecap:butt;stroke-width:28.7197}
		.st2 {fill:#1490df;stroke:none;stroke-linecap:butt;stroke-width:28.7197}
		.st3 {fill:url(#grad0-14);stroke:none;stroke-linecap:butt;stroke-width:28.7197}
		.st4 {fill:url(#grad0-18);stroke:none;stroke-linecap:butt;stroke-width:30.0095}
		.st5 {fill:#ffffff;stroke:none;stroke-linecap:butt;stroke-width:11.5156}
		.st6 {fill:#57a300;stroke:none;stroke-linecap:butt;stroke-width:11.5156}
		.st7 {fill:none;fill-rule:evenodd;font-size:12px;overflow:visible;stroke-linecap:square;stroke-miterlimit:3}
	]]>
	</style>

	<defs
   id="Patterns_And_Gradients">
		<linearGradient
   id="grad0-14"
   x1="-0.47087832"
   y1="230.80232"
   x2="13.1051"
   y2="230.80232"
   gradientTransform="scale(2.0297452,0.49267268)"
   gradientUnits="userSpaceOnUse">
			<stop
   offset="0"
   stop-color="#5e9624"
   stop-opacity="1"
   id="stop4" />
			<stop
   offset="0.24"
   stop-color="#6fb02a"
   stop-opacity="1"
   id="stop6" />
			<stop
   offset="0.5"
   stop-color="#7cc52f"
   stop-opacity="1"
   id="stop8" />
			<stop
   offset="0.755"
   stop-color="#83d232"
   stop-opacity="1"
   id="stop10" />
			<stop
   offset="1"
   stop-color="#86d633"
   stop-opacity="1"
   id="stop12" />
		</linearGradient>
		<linearGradient
   id="grad0-18"
   x1="0"
   y1="103.40429"
   x2="37.43306"
   y2="103.40429"
   gradientTransform="scale(1.1791716,0.84805302)"
   gradientUnits="userSpaceOnUse">
			<stop
   offset="0"
   stop-color="#198ab3"
   stop-opacity="1"
   id="stop15" />
			<stop
   offset="0"
   stop-color="#198ab3"
   stop-opacity="1"
   id="stop17" />
			<stop
   offset="0.11"
   stop-color="#22a5cb"
   stop-opacity="1"
   id="stop19" />
			<stop
   offset="0.23"
   stop-color="#29bade"
   stop-opacity="1"
   id="stop21" />
			<stop
   offset="0.37"
   stop-color="#2ec9eb"
   stop-opacity="1"
   id="stop23" />
			<stop
   offset="0.53"
   stop-color="#31d1f3"
   stop-opacity="1"
   id="stop25" />
			<stop
   offset="0.78"
   stop-color="#32d4f5"
   stop-opacity="1"
   id="stop27" />
		</linearGradient>
	</defs>
	<g
   id="g90"
   transform="translate(-28.724856,-28.718603)">
		<title
   id="title31">Page-1</title>
		<g
   id="group1574-1"
   transform="translate(28.7197,-34.0157)">
			<title
   id="title33">Service Endpoint</title>
			<g
   id="group1575-2"
   transform="translate(0,-25.6203)">
				<title
   id="title35">g12</title>
				<g
   id="shape1576-3"
   transform="translate(0.0113393)">
					<title
   id="title37">path4-3</title>
					<path
   d="m 17.51,117.26 -1.88,1.92 a 0.850491,0.865093 0 0 1 -1.20203,0 L 0.5,105.06 a 1.70098,1.73019 0 0 1 0,-2.45 l 1.88,-1.92 15.12,15.34 a 0.850491,0.865093 0 0 1 0,1.22555 z"
   class="st1"
   id="path39"
   inkscape:connector-curvature="0"
   style="fill:#50e6ff;stroke:none;stroke-width:28.71969986;stroke-linecap:butt" />
				</g>
				<g
   id="shape1577-5"
   transform="translate(0,-12.4941)">
					<title
   id="title42">path6-5</title>
					<path
   d="m 15.36,101.11 1.9,1.92 a 0.850491,0.865093 0 0 1 0,1.22555 L 2.39,119.43 0.5,117.51 a 1.70098,1.73019 0 0 1 0,-2.44 l 13.66,-13.94 a 0.850491,0.865093 0 0 1 1.20486,0 z"
   class="st2"
   id="path44"
   inkscape:connector-curvature="0"
   style="fill:#1490df;stroke:none;stroke-width:28.71969986;stroke-linecap:butt" />
				</g>
				<g
   id="shape1578-7"
   transform="translate(33.2407,-0.00576729)">
					<title
   id="title47">path8</title>
					<path
   d="m 15.38,100.69 1.88,1.92 a 1.70098,1.73019 0 0 1 0,2.44 L 3.33,119.18 a 0.850491,0.865093 0 0 1 -1.20203,0 L 0.25,117.25 a 0.850491,0.865093 0 0 1 0,-1.22266 z"
   class="st1"
   id="path49"
   inkscape:connector-curvature="0"
   style="fill:#50e6ff;stroke:none;stroke-width:28.71969986;stroke-linecap:butt" />
				</g>
				<g
   id="shape1579-9"
   transform="translate(33.5128,-12.5027)">
					<title
   id="title52">path10-7</title>
					<path
   d="m 17,117.51 -1.88,1.92 -14.87,-15.17 a 0.850491,0.865093 0 0 1 0,-1.22266 L 2.15,101.11 a 0.850491,0.865093 0 0 1 1.20203,0 L 17.01,115.05 a 1.70098,1.73019 0 0 1 0,2.45 z"
   class="st2"
   id="path54"
   inkscape:connector-curvature="0"
   style="fill:#1490df;stroke:none;stroke-width:28.71969986;stroke-linecap:butt" />
				</g>
				<g
   id="shape1580-11"
   transform="translate(12.7898,-13.1749)">
					<title
   id="title57">path2</title>
					<path
   d="m 26.6,117.04 a 3.28289,3.33926 0 1 1 -3.28,-3.33 3.28006,3.33638 0 0 1 3.28,3.33 z m -13.79,-3.32 a 3.28289,3.33926 -180 1 0 3.29,3.34 3.28006,3.33638 -180 0 0 -3.29,-3.34 z m -10.49,0 a 3.28289,3.33926 -180 1 0 3.29,3.35 3.28289,3.33926 -180 0 0 -3.29,-3.33 z"
   class="st3"
   id="path59"
   inkscape:connector-curvature="0"
   style="fill:url(#grad0-14);stroke:none;stroke-width:28.71969986;stroke-linecap:butt" />
				</g>
			</g>
			<g
   id="shape1581-15"
   transform="translate(3.29672)">
				<title
   id="title63">path32</title>
				<path
   d="M 44.14,109.45 A 9.92374,10.0941 -180 0 0 35.55,99.75 12.4713,12.6855 -180 0 0 22.66,87.7 12.8268,13.047 -180 0 0 10.4,96.11 11.8492,12.0527 -180 0 0 0,107.68 12.027,12.2335 -180 0 0 12.44,119.43 h 21.75 a 10.0126,10.1845 -180 0 0 9.95,-9.98 z"
   class="st4"
   id="path65"
   inkscape:connector-curvature="0"
   style="fill:url(#grad0-18);stroke:none;stroke-width:30.0095005;stroke-linecap:butt" />
			</g>
			<g
   id="group1582-19"
   transform="translate(20.9363,-9.04382)">
				<title
   id="title68">g24</title>
				<g
   id="shape1583-20">
					<title
   id="title70">path18-0</title>
					<path
   d="M 6.93,110.55 V 96.59 C 6.67,96.58 6.42,96.55 6.16,96.55 c -1.3,0 -2.57,0.17 -3.77,0.48 v 13.61 c -1.4,0.85 -2.39,2.37 -2.39,4.05 0,2.43 2.31,4.74 4.76,4.74 2.52,0 4.56,-2.13 4.56,-4.74 a 4.66396,4.74404 -180 0 0 -2.39,-4.14 z"
   class="st5"
   id="path72"
   inkscape:connector-curvature="0"
   style="fill:#ffffff;stroke:none;stroke-width:11.5156002;stroke-linecap:butt" />
				</g>
				<g
   id="group1584-22"
   transform="translate(1.37244,-1.35945)">
					<title
   id="title75">g1494</title>
					<g
   id="shape1585-23">
						<title
   id="title77">path20-4</title>
						<path
   d="m 6.59,116.08 c 0,1.93 -1.55,3.35 -3.2,3.35 -1.65,0 -3.39,-1.63 -3.39,-3.35 0,-1.73 1.55,-3.36 3.39,-3.36 1.84,0 3.2,1.63 3.2,3.36 z"
   class="st6"
   id="path79"
   inkscape:connector-curvature="0"
   style="fill:#57a300;stroke:none;stroke-width:11.5156002;stroke-linecap:butt" />
					</g>
					<g
   id="shape1586-25"
   transform="translate(2.15977,-3.35309)">
						<title
   id="title82">path22-7</title>
						<rect
   x="0"
   y="95.1474"
   width="2.2734399"
   height="24.281"
   class="st6"
   id="rect84"
   style="fill:#57a300;stroke:none;stroke-width:11.5156002;stroke-linecap:butt" />
					</g>
				</g>
			</g>
		</g>
	</g>
</svg>

<?xml version="1.0" encoding="UTF-8" standalone="no"?>
<!DOCTYPE svg PUBLIC "-//W3C//DTD SVG 1.1//EN" "http://www.w3.org/Graphics/SVG/1.1/DTD/svg11.dtd">
<!-- Generated by Microsoft Visio, SVG Export Service Endpoint.svg Page-1 -->
<svg xmlns="http://www.w3.org/2000/svg" xmlns:xlink="http://www.w3.org/1999/xlink" xmlns:ev="http://www.w3.org/2001/xml-events"
		width="1.50643in" height="1.65873in" viewBox="0 0 108.463 119.428" xml:space="preserve" color-interpolation-filters="sRGB"
		class="st7">
	<style type="text/css">
	<![CDATA[
		.st1 {fill:#50e6ff;stroke:none;stroke-linecap:butt;stroke-width:28.7197}
		.st2 {fill:#1490df;stroke:none;stroke-linecap:butt;stroke-width:28.7197}
		.st3 {fill:url(#grad0-14);stroke:none;stroke-linecap:butt;stroke-width:28.7197}
		.st4 {fill:url(#grad0-18);stroke:none;stroke-linecap:butt;stroke-width:30.0095}
		.st5 {fill:#ffffff;stroke:none;stroke-linecap:butt;stroke-width:11.5156}
		.st6 {fill:#57a300;stroke:none;stroke-linecap:butt;stroke-width:11.5156}
		.st7 {fill:none;fill-rule:evenodd;font-size:12px;overflow:visible;stroke-linecap:square;stroke-miterlimit:3}
	]]>
	</style>

	<defs id="Patterns_And_Gradients">
		<linearGradient id="grad0-14" x1="0" y1="0" x2="1" y2="0" gradientTransform="rotate(-90 0.5 0.5)">
			<stop offset="0" stop-color="#5e9624" stop-opacity="1"/>
			<stop offset="0.24" stop-color="#6fb02a" stop-opacity="1"/>
			<stop offset="0.5" stop-color="#7cc52f" stop-opacity="1"/>
			<stop offset="0.755" stop-color="#83d232" stop-opacity="1"/>
			<stop offset="1" stop-color="#86d633" stop-opacity="1"/>
		</linearGradient>
		<linearGradient id="grad0-18" x1="0" y1="0" x2="1" y2="0" gradientTransform="rotate(-90 0.5 0.5)">
			<stop offset="0" stop-color="#198ab3" stop-opacity="1"/>
			<stop offset="0" stop-color="#198ab3" stop-opacity="1"/>
			<stop offset="0.11" stop-color="#22a5cb" stop-opacity="1"/>
			<stop offset="0.23" stop-color="#29bade" stop-opacity="1"/>
			<stop offset="0.37" stop-color="#2ec9eb" stop-opacity="1"/>
			<stop offset="0.53" stop-color="#31d1f3" stop-opacity="1"/>
			<stop offset="0.78" stop-color="#32d4f5" stop-opacity="1"/>
		</linearGradient>
	</defs>
	<g>
		<title>Page-1</title>
		<g id="group1559-1" transform="translate(28.7197,-34.0157)">
			<title>Service Endpoint</title>
			<g id="group1560-2" transform="translate(0,-25.6203)">
				<title>g12</title>
				<g id="shape1561-3" transform="translate(0.0113393,-1.56319E-13)">
					<title>path4-3</title>
					<path d="M17.51 117.26 L15.63 119.18 a0.850491 0.865093 0 0 1 -1.20203 0 L0.5 105.06 A1.70098 1.73019 0 0 1 0.5
								 102.61 L2.38 100.69 L17.5 116.03 a0.850491 0.865093 0 0 1 7.10543E-15 1.22555 L17.51 117.26 Z"
							class="st1"/>
				</g>
				<g id="shape1562-5" transform="translate(-2.51799E-13,-12.4941)">
					<title>path6-5</title>
					<path d="M15.36 101.11 L17.26 103.03 a0.850491 0.865093 0 0 1 -1.77636E-14 1.22555 L2.39 119.43 L0.5 117.51 A1.70098
								 1.73019 0 0 1 0.5 115.07 L14.16 101.13 a0.850491 0.865093 0 0 1 1.20486 -1.42109E-14 L15.36 101.11
								 Z" class="st2"/>
				</g>
				<g id="shape1563-7" transform="translate(33.2407,-0.00576729)">
					<title>path8</title>
					<path d="M15.38 100.69 L17.26 102.61 A1.70098 1.73019 0 0 1 17.26 105.05 L3.33 119.18 a0.850491 0.865093 0 0
								 1 -1.20203 0 L0.25 117.25 a0.850491 0.865093 0 0 1 -8.65974E-15 -1.22266 L15.38 100.69 Z"
							class="st1"/>
				</g>
				<g id="shape1564-9" transform="translate(33.5128,-12.5027)">
					<title>path10-7</title>
					<path d="M17 117.51 L15.12 119.43 L0.25 104.26 a0.850491 0.865093 0 0 1 -4.44089E-15 -1.22266 L2.15 101.11 a0.850491
								 0.865093 0 0 1 1.20203 0 L17.01 115.05 A1.70098 1.73019 0 0 1 17.01 117.5 L17 117.51 Z"
							class="st2"/>
				</g>
				<g id="shape1565-11" transform="translate(12.7898,-13.1749)">
					<title>path2</title>
					<path d="M26.6 117.04 A3.28289 3.33926 0 1 1 23.32 113.71 A3.28006 3.33638 0 0 1 26.6 117.04 ZM12.81 113.72 A3.28289
								 3.33926 -180 1 0 16.1 117.06 A3.28006 3.33638 -180 0 0 12.81 113.72 ZM2.32 113.72 A3.28289 3.33926
								 -180 1 0 5.61 117.07 A3.28289 3.33926 -180 0 0 2.32 113.74 L2.32 113.72 Z" class="st3"/>
				</g>
			</g>
			<g id="shape1566-15" transform="translate(3.29672,2.84217E-13)">
				<title>path32</title>
				<path d="M44.14 109.45 A9.92374 10.0941 -180 0 0 35.55 99.75 A12.4713 12.6855 -180 0 0 22.66 87.7 A12.8268 13.047
							 -180 0 0 10.4 96.11 A11.8492 12.0527 -180 0 0 0 107.68 A12.027 12.2335 -180 0 0 12.44 119.43 L34.19
							 119.43 A10.0126 10.1845 -180 0 0 44.14 109.45 Z" class="st4"/>
			</g>
			<g id="group1567-19" transform="translate(20.9363,-9.04382)">
				<title>g24</title>
				<g id="shape1568-20">
					<title>path18-0</title>
					<path d="M6.93 110.55 L6.93 96.59 C6.67 96.58 6.42 96.55 6.16 96.55 C4.86 96.55 3.59 96.72 2.39 97.03 L2.39 110.64
								 C0.99 111.49 0 113.01 0 114.69 C0 117.12 2.31 119.43 4.76 119.43 C7.28 119.43 9.32 117.3 9.32 114.69
								 A4.66396 4.74404 -180 0 0 6.93 110.55 Z" class="st5"/>
				</g>
				<g id="group1569-22" transform="translate(1.37244,-1.35945)">
					<title>g1494</title>
					<g id="shape1570-23">
						<title>path20-4</title>
						<path d="M6.59 116.08 C6.59 118.01 5.04 119.43 3.39 119.43 C1.74 119.43 0 117.8 0 116.08 C0 114.35 1.55 112.72
									 3.39 112.72 C5.23 112.72 6.59 114.35 6.59 116.08 Z" class="st6"/>
					</g>
					<g id="shape1571-25" transform="translate(2.15977,-3.35309)">
						<title>path22-7</title>
						<rect x="0" y="95.1474" width="2.27344" height="24.281" class="st6"/>
					</g>
				</g>
			</g>
		</g>
	</g>
</svg>
